X:385
M:C|
L:1/8
K:D
f>de<f F<d E:|
f>d e<f F<d E>B|A>Fd>F A>Fd>F|AF/F/ d>F B/A/G/F/ E>F|A>Fd>F A>Bd>e|
f>d e<f F<d E||

